X: 527
T: Korolenko's Backyard
C: Jean-Paul Loyer
O: Qu\'ebec
D: Jean-Paul Loyer "Ojnab"
R: jig
Z: 2008 John Chambers <jc@trillian.mit.edu>
S: printed page from Debby Knight
M: 6/8
L: 1/8
K: G
BA \
|  "G"G2G GFG | "G"D2{E}D DBA | "G"G2G GFG | "Em"GEE EAB | "Am"c2c cBc | "D7"d2d dcB |
[1 "D7"A2{B}A AGA | "G"BGE "D7"D :|[2 "D7"AGE DBA | "G"G3- "G7"G2D |: "C"E2E E2D | "C"E2F G2E |
"G"DGG "D7"AGA | "G"BGB "G7"dBG |  "C"E2E E2D | "C"E2F G2E |\
"G"DGG "D7"FGA |[1 "(G)"BGF "G"G2F :|[2 "(G)"BGF "G"G |]

%%newpage

